packages/elements/bolt-icon/src/svgs/unlock.svg

<svg enable-background="new 0 0 32 32" viewBox="0 0 32 32" xmlns="http://www.w3.org/2000/svg"><path clip-rule="evenodd" d="m27.6 27.6c0 .8-.7 1.5-1.5 1.5h-20.3c-.8 0-1.5-.7-1.5-1.5v-10.1c.1-.8.7-1.5 1.5-1.5h20.4c.8 0 1.5.7 1.5 1.5v10.1zm-1.4-14.5h-16v-4.4c0-3.2 2.6-5.8 5.8-5.8 2.7 0 5.1 1.9 5.7 4.6.2.8.9 1.3 1.7 1.1s1.3-.9 1.1-1.7c-.8-4-4.4-6.9-8.5-6.9-4.8 0-8.7 3.9-8.7 8.7v4.4h-1.5c-2.4 0-4.4 2-4.4 4.4v10.2c0 2.4 2 4.4 4.4 4.4h20.4c2.4 0 4.4-2 4.4-4.4v-10.2c-.1-2.4-2-4.4-4.4-4.4z" fill="#151619" fill-rule="evenodd"/></svg>

<?xml version="1.0" encoding="utf-8"?>
<!-- Generator: Adobe Illustrator 25.2.0, SVG Export Plug-In . SVG Version: 6.00 Build 0)  -->
<svg version="1.1" id="Layer_1" xmlns="http://www.w3.org/2000/svg" xmlns:xlink="http://www.w3.org/1999/xlink" x="0px" y="0px"
	 viewBox="0 0 32 32" style="enable-background:new 0 0 32 32;" xml:space="preserve">
<style type="text/css">
	.st0{fill-rule:evenodd;clip-rule:evenodd;fill:#151619;}
</style>
<path class="st0" d="M27.6,27.6c0,0.8-0.7,1.5-1.5,1.5H5.8c-0.8,0-1.5-0.7-1.5-1.5V17.5C4.4,16.7,5,16,5.8,16h20.4
	c0.8,0,1.5,0.7,1.5,1.5V27.6z M26.2,13.1h-16V8.7c0-3.2,2.6-5.8,5.8-5.8c2.7,0,5.1,1.9,5.7,4.6c0.2,0.8,0.9,1.3,1.7,1.1
	c0.8-0.2,1.3-0.9,1.1-1.7C23.7,2.9,20.1,0,16,0c-4.8,0-8.7,3.9-8.7,8.7v4.4H5.8c-2.4,0-4.4,2-4.4,4.4v10.2c0,2.4,2,4.4,4.4,4.4h20.4
	c2.4,0,4.4-2,4.4-4.4V17.5C30.5,15.1,28.6,13.1,26.2,13.1L26.2,13.1z"/>
</svg>
